svg/s/ZA.svg

<svg width="16" height="12" viewBox="0 0 16 12" fill="none" xmlns="http://www.w3.org/2000/svg">
<g clip-path="url(#clip0_270_55162)">
<rect width="16" height="12" fill="white"/>
<path fill-rule="evenodd" clip-rule="evenodd" d="M0 0H16V12H0V0Z" fill="#F7FCFF"/>
<path fill-rule="evenodd" clip-rule="evenodd" d="M0 0V4H16V0H0Z" fill="#E31D1C"/>
<path fill-rule="evenodd" clip-rule="evenodd" d="M0 8V12H16V8H0Z" fill="#3D58DB"/>
<mask id="path-4-outside-1_270_55162" maskUnits="userSpaceOnUse" x="-1" y="-4" width="18" height="20" fill="black">
<rect fill="white" x="-1" y="-4" width="18" height="20"/>
<path fill-rule="evenodd" clip-rule="evenodd" d="M7.71429 5L0 -1V13L7.71429 7H16V5H7.71429Z"/>
</mask>
<path fill-rule="evenodd" clip-rule="evenodd" d="M7.71429 5L0 -1V13L7.71429 7H16V5H7.71429Z" fill="#5EAA22"/>
<path d="M0 -1L0.613941 -1.78935L-1 -3.04464V-1H0ZM7.71429 5L7.10035 5.78935L7.37118 6H7.71429V5ZM0 13H-1V15.0446L0.613941 13.7894L0 13ZM7.71429 7V6H7.37118L7.10035 6.21065L7.71429 7ZM16 7V8H17V7H16ZM16 5H17V4H16V5ZM-0.613941 -0.210648L7.10035 5.78935L8.32823 4.21065L0.613941 -1.78935L-0.613941 -0.210648ZM1 13V-1H-1V13H1ZM7.10035 6.21065L-0.613941 12.2106L0.613941 13.7894L8.32823 7.78935L7.10035 6.21065ZM16 6H7.71429V8H16V6ZM15 5V7H17V5H15ZM7.71429 6H16V4H7.71429V6Z" fill="#F7FCFF" mask="url(#path-4-outside-1_270_55162)"/>
<path d="M0.3 2.6L-0.5 2V3V9V10L0.3 9.4L4.3 6.4L4.83333 6L4.3 5.6L0.3 2.6Z" fill="#272727" stroke="#FECA00"/>
</g>
<defs>
<clipPath id="clip0_270_55162">
<rect width="16" height="12" fill="white"/>
</clipPath>
</defs>
</svg>

<svg width="16" height="12" fill="none" xmlns="http://www.w3.org/2000/svg">
  <mask id="a" maskUnits="userSpaceOnUse" x="0" y="0" width="16" height="12">
    <path fill="#fff" d="M0 0h16v12H0z"/>
  </mask>
  <g mask="url(#a)">
    <path fill-rule="evenodd" clip-rule="evenodd" d="M0 0h16v12H0V0z" fill="#F7FCFF"/>
    <path fill-rule="evenodd" clip-rule="evenodd" d="M0 0v4h16V0H0z" fill="#E31D1C"/>
    <path fill-rule="evenodd" clip-rule="evenodd" d="M0 8v4h16V8H0z" fill="#3D58DB"/>
    <mask id="b" maskUnits="userSpaceOnUse" x="-1" y="-4" width="18" height="20" fill="#000">
      <path fill="#fff" d="M-1-4h18v20H-1z"/>
      <path fill-rule="evenodd" clip-rule="evenodd" d="M7.714 5L0-1v14l7.714-6H16V5H7.714z"/>
    </mask>
    <path fill-rule="evenodd" clip-rule="evenodd" d="M7.714 5L0-1v14l7.714-6H16V5H7.714z" fill="#5EAA22"/>
    <path d="M0-1l.614-.79L-1-3.044V-1h1zm7.714 6l-.614.79.271.21h.343V5zM0 13h-1v2.045l1.614-1.256L0 13zm7.714-6V6h-.343l-.27.21.613.79zM16 7v1h1V7h-1zm0-2h1V4h-1v1zM-.614-.21l7.714 6 1.228-1.58-7.714-6L-.614-.21zM1 13V-1h-2v14h2zm6.1-6.79l-7.714 6 1.228 1.58 7.714-6L7.1 6.21zM16 6H7.714v2H16V6zm-1-1v2h2V5h-2zM7.714 6H16V4H7.714v2z" fill="#F7FCFF" mask="url(#b)"/>
    <path d="M.3 2.6L-.5 2v8l.8-.6 4-3 .533-.4-.533-.4-4-3z" fill="#272727" stroke="#FECA00"/>
  </g>
</svg>
